!!!!SEGMENT: pl-sa--572-a-ix-52--001_anonim--ach-wdzieczny-jezu.krn
!!!cenid: 18xx:655
!!!COM: Anonim
!!!COM-rismid: pe30004985
!!!CDT:
!!!CNT:
!!!OTL: Ach wdzięczny Jezu
!!!PDT:
!!!AGN: Secular
!!!SMS-siglum: PL-SA
!!!SMS-shelfmark: 572/A IX 52
!!!SMS-shelfwork: 001 W
!!!SMS-variant:
!!!SMS-altvar:
!!!NIFC-rismid: 1001092012
!!!system-decoration: {(s1,s2)}
**kern	**kern	**text
*part1	*part1	*part1
*staff2	*staff1	*staff1
*Iempty	*Ipiano	*
*	*I"Piano	*
*	*I'Pno.	*
*clefF4	*clefG2	*
*k[]	*k[]	*
*C:	*C:	*
*M3/4	*M3/4	*
=1	=1	=1
!LO:TX:a:t=P:wszystkie nuty mają caudy z prawej strony:problem	!LO:TX:a:t=P:wszystkie nuty mają caudy z prawej strony:problem	!
!	!LO:TX:a:Bi:t=Spiew na Wielki piątek przy grobie Pańskim	!
!	!LO:TX:a:Bi:t=Adagio&colon;:rj	!
4C\	8c/L	Ach
.	8e/J	.
4E\	4.g 4.e/	wdzię-
4C\	.	.
.	8cc 8e/	-czny
=2	=2	=2
4G\	8ccL 8e/	Je-
.	8bJ 8d/	.
4GG/	4b 4d/	-zu
4G\	4r	.
=3	=3	=3
4C/	8ccL 8a/	cze-
.	8aJ 8f/	-mu
4G\	4.g 4.e/	nie
4GG/	.	.
.	8f 8d/	u-
=4	=4	=4
4C/	8fL 8d/	-mie-
.	8eJ 8c/	.
4CC/	4e 4c/	-rasz
4C/	4r	.
=5	=5	=5
4C\	8gL 8e/	Cze-
.	8ccJ 8g/	.
4c\	4.ee 4.g\	-mu
4A 4AA\	.	.
.	8cc 8a\	mnie
=6	=6	=6
4A 4AA\	8ccL 8a/	Ma-
.	8bJ 8g/	.
4G\	4b 4g/	-tki
4GG/	4r	.
=7	=7	=7
4F 4FF/	8ccL 8a/	so-
.	8aJ 8f/	-bą
4E 4EE/	4.g 4.e/	nie
4D 4DD/	.	.
.	8f 8d/	za-
=8	=8	=8
8CC/L	8fL 8d/	-bie-
8C/	8eJ 8c/	.
8C/	4e 4c/	-rasz
8C/	.	.
8C/	4r	.
8C/J	.	.
!!LO:LB:g=original
=9	=9	=9
8CC/L	2g 2e/	wszak
8C/	.	.
8CC/	.	.
8C/	.	.
8CC/	8f#XL 8d#X/	mnie
8C/J	8gJ 8e/	.
=10	=10	=10
4CC/	16aLL 16f/	u-
.	16g 16e/	.
.	16f#X 16d#X/	-mie-
.	16gJJ 16e/	.
4C/	2e 2c/	-rać
4CC/	.	.
=11	=11	=11
4FF/	8aL 8f/	przy-
.	8ccJ 8a/	-sto-
4F\	4.cc 4.a/	-i
4FF/	.	.
.	8a 8f/	nie
=12	=12	=12
4CC/	8aL 8f/	to-
.	8gJ 8e/	.
8r	4g 4e/	-bie
8C\L	.	.
8E\	4r	.
8G\J	.	.
=13	=13	=13
4C\	4.g 4.e/	Ra-
4c\	.	.
.	16fLL 16d/	-da
.	16eJJ 16c/	.
4C/	8ccL 8a\	bym
.	16bL 16g\	za-
.	16aJJ 16f\	.
=14	=14	=14
4C/	8aL 8f/	-le-
.	8gJ 8e/	.
4c\	4g 4e/	-gła
4C/	4r	.
=15	=15	=15
4C\	8gL 8e/	twe
.	16aL 16f/	mię-
.	16gJJ 16e/	.
4G\	4f 4d/	-szka-
4C\	4e 4c/	-mi
=16	=16	=16
4C/	4e 4c/	w Gro-
4G 4GG;<\	4d 4B;>/	-bie
4r	4r	.
==	==	==
*-	*-	*-
!!title: @{OTL};
!!!RDF**kern: > = above
!!!RDF**kern: < = below
!!!EED: Wojciech Jakubiak-Danek
!!!EST: 2020-12-10
!!!URL-scan: http://bc.bdsandomierz.pl/dlibra/publication/1378/edition/1346/content
!!!ONB-nifc: Str. 1, s. 1-2
!!!AIN: 1 empty
!!!ENC: Marcin Jachim
!!!END: 2020-06-19
